X: 766
T: Airaidh Nam Badan
R: jig
M: 6/8
K: Gmajor
d|d>GG G>AB|d>ed B>AG|B>AA ABd|e3 g3|
dBG GAB|d>ed BAG|B>AA ABd|e3 d2:|
z|deg ggg|a>ba geg|e>dd d>eg|a3 g2a|
b>gg a>ee|g>dd e>gg|B>AA ABd|1 e3 g2:|2 e3 d2||

